static/logo-blue.svg

<svg width="174" height="70" viewBox="0 0 174 70" fill="none" xmlns="http://www.w3.org/2000/svg">
<g clip-path="url(#clip0)">
<path d="M143.175 41.6213L143.092 41.3531L143.175 41.6213L143.248 41.864L143.175 41.6213Z" fill="white"/>
<path d="M135.092 39.7983C135.111 39.8015 135.133 39.8079 135.156 39.8111C135.133 39.8079 135.111 39.8047 135.092 39.7983Z" fill="white"/>
<path d="M148.178 38.4545L148.705 39.5399L149.294 40.7435L148.178 38.4545Z" fill="white"/>
<path d="M173.408 0L104.35 6.10417V11.7135L119.887 20.2089C119.804 20.9272 119.762 21.6519 119.762 22.3862C119.762 26.2971 120.936 30.0643 123.116 33.276C123.257 33.4867 123.404 33.6911 123.554 33.8954C124.098 34.6329 124.693 35.3384 125.342 36.0089C126.087 36.7751 126.886 37.4742 127.724 38.1032C128.565 38.7321 129.451 39.2908 130.372 39.7729C131.491 40.3603 132.661 40.8328 133.87 41.1936L134.27 39.6132C132.3 39.1407 130.829 38.5789 130.253 38.3394C130.078 38.266 129.985 38.2245 129.985 38.2245C129.985 38.2245 130.017 38.2373 130.071 38.2628C131.062 38.6746 140.498 42.2375 149.014 32.8801C158.104 22.8906 150.993 9.80434 150.993 9.80434C150.996 9.80753 162.015 19.6693 153.343 33.458C152.173 35.3161 150.801 36.7112 149.317 37.7424C149.186 37.8318 149.055 37.918 148.924 38.001C149.055 37.9148 149.19 37.8318 149.321 37.7424L149.915 38.7768C151.105 38.0712 152.135 37.1741 153.011 36.111C153.407 35.7151 153.298 35.8077 153.653 35.3831C154.747 34.0678 155.69 32.5577 156.368 31.0125C157.19 29.1417 157.698 27.1303 157.868 25.0456C157.909 24.5284 157.932 24.0048 157.932 23.4813C157.932 21.4987 157.628 19.5576 157.049 17.7027L173.408 6.10417V0Z" fill="white"/>
<path d="M14.2924 15.5735C10.7335 15.7586 7.53587 17.2655 4.79553 20.0622C2.04559 22.8716 0.456383 26.2238 0.0854613 30.0134C-0.000873937 30.853 -0.0232571 31.6863 0.0183117 32.494C0.200575 35.8047 1.35811 38.4705 3.45573 40.4147C5.60772 42.4069 8.39922 43.2849 11.7439 43.0295C15.1014 42.7709 17.9536 41.7077 20.2239 39.8688L20.3966 39.7283L20.8635 34.7511L19.9202 35.6004C17.49 37.7905 14.82 39.01 11.9933 39.2175C9.73582 39.3835 7.91958 38.761 6.44868 37.3116C5.02895 35.9196 4.24554 34.0296 4.11763 31.6991C4.08566 31.1308 4.10165 30.537 4.1592 29.9304C4.42141 27.2391 5.57254 24.7999 7.57424 22.6929C9.55995 20.6017 11.7535 19.4779 14.0909 19.3471C16.9336 19.1874 19.3478 20.0654 21.2664 21.9458L22.005 22.6673L22.4527 17.8849L22.2256 17.7061C20.1888 16.1258 17.522 15.4042 14.2924 15.5735Z" fill="#0060D3"/>
<path d="M40.6786 16.9685L25.6179 17.7954L25.2949 21.2817L31.1369 20.9432L29.2376 40.8073L32.7517 40.5392L34.6319 20.7389L40.3716 20.4069L40.6786 16.9685Z" fill="#0060D3"/>
<path d="M53.3955 17.7508C52.2699 16.8346 50.6807 16.4227 48.6694 16.5313L42.514 16.8697L40.3652 39.9615L43.7771 39.6997L44.6884 30.3966L47.7389 30.189C49.958 30.039 51.7519 29.2568 53.0757 27.9351C54.326 26.6868 55.0454 25.0458 55.2213 23.0952C55.2628 22.6227 55.2692 22.1566 55.2437 21.7352C55.1477 19.992 54.5242 18.6416 53.3955 17.7508ZM45.5901 19.7653L48.2953 19.6089C51.3362 19.4333 51.7775 20.9913 51.8414 22.1055C51.8574 22.3705 51.851 22.645 51.8254 22.9355C51.608 25.3683 50.1755 26.6293 47.4383 26.8049L44.9506 26.9646L45.5901 19.7653Z" fill="#0060D3"/>
<path d="M60.36 31.4723L61.7381 15.8128L58.4446 15.9948L56.2734 40.7115L71.2254 22.4501L69.8952 38.049L73.112 37.8031L75.1745 13.4727L60.36 31.4723Z" fill="#0060D3"/>
<path d="M87.1624 30.8976L80.7352 12.815L75.4688 37.2923L78.6344 37.0497L81.4227 23.5452L86.6252 38.0234L94.146 22.7854L94.6512 35.8301L97.6857 35.6003L96.525 11.8892L87.1624 30.8976Z" fill="#0060D3"/>
<path d="M43.3939 47.2851C41.955 46.5252 40.0588 46.2347 37.7597 46.4263L37.0083 46.4869L37.2769 43.7605L31.0927 44.2521L30.8241 46.9946L30.1942 47.0456C27.5466 47.2627 25.2987 48.0258 23.5016 49.3124C21.0139 51.097 19.5654 53.8075 19.1913 57.3799C19.1177 58.111 19.0921 58.8006 19.1209 59.4264C19.2392 62.1432 20.3104 64.0364 22.3057 65.0549C23.799 65.8147 25.7528 66.0829 28.1062 65.8466L28.8704 65.77L28.4579 70.0001L34.6869 69.3584L35.0898 65.1474L35.7101 65.0868C38.3161 64.825 40.5225 64.03 42.2652 62.7243C44.6346 60.9524 46.0192 58.2771 46.3741 54.7716C46.4444 54.0597 46.4636 53.3956 46.438 52.7954C46.3229 50.1233 45.3253 48.3195 43.3939 47.2851ZM29.6219 60.6427L28.8672 60.713C28.6818 60.7321 28.4995 60.7385 28.3268 60.7321C27.617 60.7162 26.9966 60.515 26.4786 60.1415C25.724 59.586 25.3179 58.7304 25.2667 57.5938C25.2539 57.3065 25.2667 57.0032 25.3019 56.6872C25.4554 55.2409 25.9894 54.0916 26.8975 53.2711C27.6553 52.5783 28.573 52.1793 29.625 52.0867L30.514 52.0069L29.6219 60.6427ZM40.5704 55.4357C40.4297 56.834 39.9085 57.9674 39.0164 58.7974C38.2618 59.503 37.3537 59.9116 36.3144 60.0106L35.4287 60.0936L36.3016 51.5056L37.0531 51.4386C37.9868 51.3588 38.7766 51.5471 39.4001 52.0037C40.1452 52.5304 40.5513 53.3797 40.6024 54.5258C40.6152 54.8227 40.6024 55.1292 40.5704 55.4357Z" fill="#0060D3"/>
<path d="M61.1653 66.2521L61.6194 60.9365L54.6998 61.6101L55.0291 57.7439L61.4339 57.1373L61.8464 52.1633L55.4512 52.7348L55.7742 49.0027L62.6746 48.4025L63.1255 42.7996L50.1912 43.8499L48.1543 67.8069L61.1653 66.2521Z" fill="#0060D3"/>
<path d="M76.4559 46.6945C78.1058 46.554 79.5032 46.9946 80.6287 48.0098L81.134 41.8067C79.9796 41.3086 78.7517 41.0468 77.4791 41.0309C77.153 41.0277 76.8204 41.0372 76.4879 41.0628C73.6132 41.2958 71.0136 42.5793 68.7656 44.8779C66.3355 47.3521 64.9509 50.4266 64.6439 54.0214C64.58 54.7652 64.5672 55.4868 64.6056 56.1604C64.775 59.0592 65.7727 61.3451 67.5793 62.951C69.3668 64.5409 71.6787 65.1985 74.4542 64.908C75.9411 64.7548 77.5974 64.2024 79.3849 63.2638L79.8709 57.1948C78.6366 58.3249 77.1817 58.9762 75.5382 59.1391C74.16 59.2731 72.9993 58.9092 72.0975 58.0568C71.2054 57.2139 70.7098 56.0391 70.6234 54.5673C70.6043 54.2065 70.6107 53.8362 70.6426 53.4595C70.7897 51.7132 71.3877 50.1871 72.4141 48.9261C73.5109 47.5852 74.8699 46.8349 76.4559 46.6945Z" fill="#0060D3"/>
<path d="M98.479 45.3503L98.8787 40.2422L83.4631 41.4234L83.041 46.6145L88.0772 46.1803L86.7087 63.2478L92.2213 62.6763L93.5675 45.6983L98.479 45.3503Z" fill="#0060D3"/>
<path d="M104.35 25.4702V25.4989L105.558 26.0002L104.35 25.4702Z" fill="#0FC6EF"/>
<path d="M157.049 17.7028C157.628 19.5577 157.931 21.4988 157.931 23.4813C157.931 24.0081 157.909 24.5285 157.867 25.0457L173.408 14.5166V12.4159V6.10425L157.049 17.7028Z" fill="#31A2FF"/>
<path d="M123.116 33.2793C120.936 30.0644 119.762 26.3004 119.762 22.3895C119.762 21.6552 119.804 20.9305 119.887 20.2122L104.35 11.7168V15.1392V25.4735L105.558 26.0035L123.116 33.2793Z" fill="#31A2FF"/>
<path d="M127.724 38.1063L124.021 40.6827L108.656 51.4895C109.363 51.4959 110.338 51.9077 111.371 52.6325L127.218 41.9055L130.368 39.7728C129.45 39.294 128.568 38.7353 127.724 38.1063Z" fill="#31A2FF"/>
<path d="M132.328 47.4095L133.412 43.0453L132.222 43.8243L123.461 49.5709L132.328 47.4095Z" fill="#31A2FF"/>
<path d="M164.021 46.9274C162.982 48.0384 162.221 49.2165 161.824 50.2317L163.433 52.6325L163.615 52.7283C164.724 52.3675 166.112 51.4193 167.375 50.0689C169.492 47.8054 170.458 45.2641 169.53 44.3989C168.881 43.7923 167.474 44.169 165.962 45.229C165.927 45.2513 165.895 45.2769 165.86 45.2992C165.246 45.7366 164.619 46.2857 164.021 46.9274Z" fill="white"/>
<path d="M163.514 52.757C163.543 52.7474 163.569 52.741 163.597 52.7314L163.508 52.7442L163.514 52.757Z" fill="white"/>
<path d="M131.354 10.7813C127.428 9.62555 122.999 13.3513 121.464 19.1043C119.929 24.8572 121.864 30.457 125.79 31.6127C129.717 32.7684 134.146 29.0427 135.681 23.2897C137.215 17.5367 135.281 11.937 131.354 10.7813ZM133.292 22.5873C132.115 26.9899 128.713 29.8536 125.71 28.9692C122.705 28.0849 121.218 23.7845 122.394 19.382C123.571 14.9795 126.973 12.1157 129.976 13.0001C132.982 13.8812 134.469 18.1848 133.292 22.5873Z" fill="#0F89FF"/>
<path d="M124.116 19.8863C123.314 22.8937 124.331 25.834 126.384 26.4374C128.436 27.0408 130.761 25.087 131.564 22.0764C132.366 19.069 131.349 16.1319 129.297 15.5253C127.244 14.9219 124.922 16.8789 124.116 19.8863Z" fill="#0F89FF"/>
<path d="M163.504 52.7442L163.597 52.7314L163.613 52.7282L163.61 52.725L163.428 52.6324L163.504 52.7442Z" fill="#0FC6EF"/>
<path d="M152.119 42.6111L149.609 43.2177L144.177 44.533L143.061 44.8012L150.137 46.7486L158.179 44.7852L152.119 42.6111Z" fill="#0F89FF"/>
<path d="M149.015 32.8801C158.106 22.8906 150.994 9.80433 150.994 9.80433C149.421 8.12505 148.123 7.22156 148.123 7.22156C148.123 7.22156 154.48 21.8339 146.345 30.6549C137.037 40.7466 125.852 35.1213 125.852 35.1213C126.696 36.1333 127.581 37.1869 130.072 38.2628C131.067 38.6746 140.5 42.2407 149.015 32.8801Z" fill="#0F89FF"/>
<path d="M143.067 44.8011H143.061L119.536 50.5254L118.852 52.1089L147.272 47.3999L150.137 46.7486L143.067 44.8011Z" fill="white"/>
<path d="M133.052 6.1297L130.638 6.67562C130.117 6.79375 129.695 7.25348 129.707 7.93988C129.717 8.62628 130.152 8.89445 130.673 8.77633L133.09 8.2304C133.612 8.11227 134.034 7.65255 134.024 6.96615C134.005 6.28294 133.573 6.01157 133.052 6.1297Z" fill="#0F89FF"/>
<path d="M125.342 36.012C124.693 35.3448 124.095 34.636 123.554 33.8985C123.404 33.6942 123.257 33.4867 123.116 33.2792L105.558 26.0001L104.35 25.4989V33.1419L124.024 40.6827L127.727 38.1063C126.886 37.4774 126.087 36.7782 125.342 36.012Z" fill="#0F89FF"/>
<path d="M157.869 25.0457C157.699 27.1336 157.191 29.1449 156.369 31.0125C155.688 32.5577 154.745 34.0678 153.654 35.3832L173.412 23.1716V20.9751V14.5166L157.869 25.0457Z" fill="#0F89FF"/>
<path d="M164.02 46.9274C164.618 46.2857 165.248 45.7366 165.858 45.296C165.894 45.2705 165.926 45.2482 165.961 45.2258C167.157 44.3894 168.282 43.9807 169.024 44.1435L153.007 36.1143C152.131 37.1806 151.105 38.0745 149.912 38.78L152.115 42.6111L158.175 44.7852L161.82 50.2317C162.22 49.2165 162.981 48.0384 164.02 46.9274Z" fill="#31A2FF"/>
<path d="M161.941 50.4104L162.037 50.5509L161.941 50.4104Z" fill="#31A2FF"/>
<path d="M144.052 44.5649L143.492 42.6526L143.176 41.6214L142.738 40.1975C140.362 40.5072 138.021 40.3284 136.007 39.974C135.396 39.8655 134.817 39.7442 134.274 39.6133L133.874 41.1936L133.417 43.0421L132.336 47.4063L132.464 47.3744L135.649 46.5986L137.996 46.0271L143.064 44.7916L144.087 44.549L144.052 44.5649Z" fill="#0F89FF"/>
<path d="M136.006 39.9771C138.021 40.3283 140.361 40.5103 142.737 40.2006L143.175 41.6245L143.492 42.6557L144.051 44.568L150.408 43.0292L148.707 39.543L148.179 38.4575C148.566 38.2436 148.947 38.0073 149.321 37.7487C150.805 36.7175 152.176 35.3224 153.347 33.4643C162.019 19.6757 151 9.81067 150.997 9.81067C150.997 9.81067 158.105 22.897 149.017 32.8865C140.502 42.2439 131.069 38.681 130.075 38.2691C130.017 38.2468 129.988 38.2308 129.988 38.2308C129.988 38.2308 130.081 38.2723 130.257 38.3458C130.989 38.6459 133.176 39.4791 136.006 39.9771Z" fill="#0060D3"/>
<path d="M147.271 47.3999L148.316 51.4098L116.439 57.6895L118.85 52.1089L147.271 47.3999Z" fill="#31A2FF"/>
<path d="M150.137 46.7487L147.272 47.3999L148.317 51.4098L116.44 57.6864L115.791 59.1901C115.763 59.2986 115.724 59.3976 115.667 59.4838C115.632 59.5412 115.59 59.5923 115.542 59.6402C115.51 59.6721 115.472 59.7009 115.433 59.7264C115.325 59.7998 115.197 59.8509 115.056 59.8765L115.053 59.8797L152.963 54.3246L150.137 46.7487Z" fill="#0F89FF"/>
<path d="M130.372 39.7761L127.222 41.9088L111.375 52.6357C111.528 52.7443 111.682 52.856 111.835 52.9774C112.069 53.1593 112.302 53.3573 112.533 53.568C112.766 53.7755 112.996 53.9958 113.226 54.2288C113.527 54.5353 113.802 54.8482 114.055 55.1611C114.198 55.3398 114.339 55.5154 114.467 55.691C114.969 56.3806 115.34 57.0543 115.57 57.6545C115.593 57.7087 115.618 57.7662 115.637 57.8205C115.769 58.1972 115.832 58.542 115.832 58.8357C115.832 58.9634 115.816 59.0847 115.791 59.1933L119.535 50.5255L123.462 49.5709L132.227 43.8243L133.413 43.0453L133.87 41.1968C132.661 40.8361 131.491 40.3636 130.372 39.7761Z" fill="#83CDFF"/>
<path d="M115.665 59.4869C115.774 59.3113 115.829 59.091 115.832 58.8356C115.835 58.5387 115.768 58.1971 115.637 57.8204C115.416 57.1787 115.016 56.4444 114.466 55.691C114.111 55.2057 113.696 54.7109 113.229 54.2288C112.621 53.603 111.988 53.0667 111.378 52.6357C110.342 51.911 109.366 51.496 108.663 51.4928C108.337 51.4896 108.065 51.5758 107.876 51.7577C107.857 51.7737 107.841 51.7961 107.825 51.812C107.08 52.6772 108.116 55.0429 110.188 57.1755C112.222 59.2666 114.514 60.3681 115.438 59.7296C115.477 59.704 115.512 59.6753 115.547 59.6434C115.589 59.5987 115.63 59.5444 115.665 59.4869Z" fill="white"/>
<path d="M148.18 38.4544L150.408 43.0229L152.119 42.6079L149.318 37.7424C148.947 38.0042 148.563 38.2405 148.18 38.4544Z" fill="#0F89FF"/>
<path d="M153.65 35.3863C153.295 35.8109 153.404 35.7184 153.007 36.1142L169.024 44.1435C169.223 44.1882 169.392 44.268 169.529 44.3957C170.457 45.2641 169.491 47.8022 167.374 50.0657C166.111 51.4162 164.724 52.3644 163.614 52.7251L163.617 52.7283L163.598 52.7315C163.569 52.7411 163.544 52.7475 163.515 52.757L163.508 52.7443L163.432 52.6293L161.823 50.2285L158.178 44.782L150.136 46.7486L152.963 54.331L115.052 59.886L115.055 59.8828C113.978 60.0967 111.982 59.024 110.185 57.1755C108.113 55.0429 107.08 52.6772 107.822 51.812C107.838 51.7929 107.854 51.7737 107.873 51.7578C108.062 51.5726 108.334 51.4896 108.66 51.4928L124.024 40.686L104.35 33.1452V55.1387V66.0604V66.086L173.408 58.0631V57.996V49.2197V47.815V23.1748L153.65 35.3863Z" fill="#0060D3"/>
<path d="M115.256 59.8222C115.32 59.7966 115.377 59.7679 115.432 59.7296C115.381 59.7679 115.32 59.7966 115.256 59.8222Z" fill="#0060D3"/>
</g>
<defs>
<clipPath id="clip0">
<rect width="173.409" height="70" fill="white"/>
</clipPath>
</defs>
</svg>

<svg width="174" height="70" fill="none" xmlns="http://www.w3.org/2000/svg"><g clip-path="url(#clip0)"><path d="M143.175 41.621l-.083-.268.083.268.073.243-.073-.243zM135.092 39.798c.019.003.041.01.064.013a.362.362 0 01-.064-.013zM148.178 38.455l.527 1.085.589 1.203-1.116-2.288z" fill="#fff"/><path d="M173.408 0L104.35 6.104v5.61l15.537 8.495a19.335 19.335 0 003.667 13.687 20.719 20.719 0 001.788 2.113 20.422 20.422 0 002.382 2.094 19.61 19.61 0 006.146 3.09l.4-1.58a27.908 27.908 0 01-4.017-1.274c-.175-.073-.268-.114-.268-.114s.032.012.086.038c.991.412 10.427 3.974 18.943-5.383 9.09-9.99 1.979-23.076 1.979-23.076.003.004 11.022 9.865 2.35 23.654-1.17 1.858-2.542 3.253-4.026 4.284a13.8 13.8 0 01-.393.259c.131-.086.266-.17.397-.259l.594 1.035a11.783 11.783 0 003.096-2.666c.396-.396.287-.303.642-.728a18.679 18.679 0 002.715-4.37 18.562 18.562 0 001.5-5.967 19.363 19.363 0 00-.819-7.343l16.359-11.599V0z" fill="#fff"/><path d="M14.292 15.573c-3.559.186-6.756 1.692-9.496 4.49-2.75 2.809-4.34 6.16-4.71 9.95-.087.84-.11 1.673-.068 2.481.183 3.31 1.34 5.977 3.438 7.92 2.152 1.993 4.943 2.87 8.288 2.615 3.357-.258 6.21-1.321 8.48-3.16l.173-.14.466-4.978-.943.85c-2.43 2.19-5.1 3.409-7.927 3.617-2.257.165-4.073-.457-5.544-1.906-1.42-1.392-2.203-3.282-2.331-5.613a11.79 11.79 0 01.041-1.769c.262-2.69 1.414-5.13 3.415-7.237 1.986-2.091 4.18-3.215 6.517-3.346 2.843-.16 5.257.718 7.175 2.599l.739.721.448-4.782-.227-.179c-2.037-1.58-4.704-2.302-7.934-2.133zM40.679 16.968l-15.061.827-.323 3.487 5.842-.339-1.9 19.864 3.515-.268 1.88-19.8 5.74-.332.307-3.439zM53.395 17.75c-1.125-.915-2.714-1.327-4.726-1.219l-6.155.339-2.149 23.091 3.412-.261.911-9.303 3.05-.208c2.22-.15 4.014-.932 5.338-2.254 1.25-1.248 1.97-2.89 2.145-4.84.042-.472.048-.938.023-1.36-.096-1.743-.72-3.093-1.849-3.984zm-7.805 2.015l2.705-.156c3.041-.176 3.483 1.382 3.546 2.496.016.265.01.54-.016.83-.217 2.433-1.65 3.694-4.387 3.87l-2.487.16.64-7.2zM60.36 31.472l1.378-15.66-3.293.183-2.172 24.717L71.225 22.45l-1.33 15.599 3.217-.246 2.063-24.33-14.815 18zM87.162 30.898l-6.427-18.083-5.266 24.477 3.165-.242 2.789-13.505 5.202 14.478 7.521-15.238.505 13.045 3.035-.23-1.161-23.71-9.363 19.008zM43.394 47.285c-1.439-.76-3.335-1.05-5.634-.859l-.752.06.269-2.725-6.184.491-.269 2.743-.63.05c-2.647.218-4.895.98-6.692 2.267-2.488 1.785-3.937 4.495-4.31 8.068-.074.731-.1 1.42-.071 2.046.118 2.717 1.19 4.61 3.185 5.629 1.493.76 3.447 1.028 5.8.792l.764-.077-.412 4.23 6.229-.642.403-4.21.62-.061c2.606-.262 4.813-1.057 6.555-2.363 2.37-1.772 3.754-4.447 4.11-7.952.07-.712.089-1.376.063-1.977-.115-2.672-1.113-4.476-3.044-5.51zM29.622 60.643l-.755.07c-.185.02-.367.026-.54.02-.71-.017-1.33-.218-1.848-.591-.755-.556-1.161-1.412-1.212-2.548-.013-.288 0-.59.035-.907.153-1.446.687-2.595 1.596-3.416a4.539 4.539 0 012.727-1.184l.889-.08-.892 8.636zm10.948-5.207c-.14 1.398-.662 2.531-1.554 3.361a4.49 4.49 0 01-2.702 1.214l-.885.083.873-8.588.751-.067c.934-.08 1.724.108 2.347.565.745.526 1.151 1.376 1.202 2.522.013.297 0 .603-.032.91zM61.165 66.252l.454-5.315-6.92.673.33-3.866 6.405-.607.412-4.974-6.395.572.323-3.732 6.9-.6.452-5.603-12.935 1.05-2.037 23.957 13.011-1.555zM76.456 46.694c1.65-.14 3.047.3 4.173 1.316l.505-6.203a9.47 9.47 0 00-3.655-.776c-.326-.003-.659.006-.991.032-2.875.233-5.474 1.516-7.722 3.815-2.43 2.474-3.815 5.549-4.122 9.143a15.11 15.11 0 00-.038 2.14c.169 2.898 1.167 5.184 2.973 6.79 1.788 1.59 4.1 2.247 6.875 1.957 1.487-.153 3.143-.706 4.93-1.644l.487-6.07c-1.234 1.13-2.69 1.782-4.333 1.945-1.378.134-2.539-.23-3.44-1.082-.893-.843-1.388-2.018-1.475-3.49-.019-.36-.012-.73.02-1.108.147-1.746.745-3.272 1.771-4.533 1.097-1.34 2.456-2.091 4.042-2.232zM98.479 45.35l.4-5.108-15.416 1.181-.422 5.191 5.036-.434-1.368 17.068 5.512-.572 1.346-16.978 4.912-.348z" fill="#0060D3"/><path d="M104.35 25.47v.029l1.208.501-1.208-.53z" fill="#0FC6EF"/><path d="M157.049 17.703a19.362 19.362 0 01.818 7.343l15.541-10.53V6.105l-16.359 11.599zM123.116 33.28a19.342 19.342 0 01-3.229-13.068l-15.537-8.495V25.474l1.208.53 17.558 7.275zM127.724 38.106l-3.703 2.577-15.365 10.806c.707.007 1.682.419 2.715 1.144l15.847-10.727 3.15-2.133a19.584 19.584 0 01-2.644-1.667zM132.328 47.41l1.084-4.365-1.19.78-8.761 5.746 8.867-2.161z" fill="#31A2FF"/><path d="M164.021 46.927c-1.039 1.111-1.8 2.29-2.197 3.305l1.609 2.4.182.096c1.109-.36 2.497-1.309 3.76-2.66 2.117-2.263 3.083-4.804 2.155-5.67-.649-.606-2.056-.229-3.568.831-.035.022-.067.048-.102.07-.614.438-1.241.987-1.839 1.628zM163.514 52.757c.029-.01.055-.016.083-.026l-.089.013.006.013z" fill="#fff"/><path d="M131.354 10.781c-3.926-1.155-8.355 2.57-9.89 8.323-1.535 5.753.4 11.353 4.326 12.509 3.927 1.155 8.356-2.57 9.891-8.323 1.534-5.753-.4-11.353-4.327-12.509zm1.938 11.806c-1.177 4.403-4.579 7.267-7.582 6.382-3.005-.884-4.492-5.184-3.316-9.587 1.177-4.403 4.579-7.266 7.582-6.382 3.006.881 4.493 5.185 3.316 9.587z" fill="#0F89FF"/><path d="M124.116 19.886c-.802 3.008.215 5.948 2.268 6.551 2.052.604 4.377-1.35 5.18-4.36.802-3.008-.215-5.945-2.267-6.552-2.053-.603-4.375 1.354-5.181 4.361z" fill="#0F89FF"/><path d="M163.504 52.744l.093-.013.016-.003-.003-.003-.182-.093.076.112z" fill="#0FC6EF"/><path d="M152.119 42.611l-2.51.607-5.432 1.315-1.116.268 7.076 1.948 8.042-1.964-6.06-2.174zM149.015 32.88c9.091-9.99 1.979-23.076 1.979-23.076-1.573-1.679-2.871-2.582-2.871-2.582s6.357 14.612-1.778 23.433c-9.308 10.092-20.493 4.466-20.493 4.466.844 1.012 1.729 2.066 4.22 3.142.995.412 10.428 3.978 18.943-5.383z" fill="#0F89FF"/><path d="M143.067 44.801h-.006l-23.525 5.724-.684 1.584 28.42-4.71 2.865-.65-7.07-1.948z" fill="#fff"/><path d="M133.052 6.13l-2.414.546c-.521.118-.943.577-.931 1.264.01.686.445.954.966.836l2.417-.546c.522-.118.944-.577.934-1.264-.019-.683-.451-.954-.972-.836zM125.342 36.012a20.004 20.004 0 01-2.226-2.733L105.558 26l-1.208-.501v7.643l19.674 7.54 3.703-2.576a20.198 20.198 0 01-2.385-2.094zM157.869 25.046a18.52 18.52 0 01-1.5 5.966 18.883 18.883 0 01-2.715 4.371l19.758-12.211V14.517l-15.543 10.529z" fill="#0F89FF"/><path d="M164.02 46.927a12.724 12.724 0 011.838-1.631c.036-.026.068-.048.103-.07 1.196-.837 2.321-1.245 3.063-1.082l-16.017-8.03a11.67 11.67 0 01-3.095 2.666l2.203 3.831 6.06 2.174 3.645 5.447c.4-1.015 1.161-2.194 2.2-3.305zM161.941 50.41l.096.14-.096-.14z" fill="#31A2FF"/><path d="M144.052 44.565l-.56-1.912-.316-1.032-.438-1.424c-2.376.31-4.717.131-6.731-.223-.611-.108-1.19-.23-1.733-.36l-.4 1.58-.457 1.848-1.081 4.364.128-.032 3.185-.775 2.347-.572 5.068-1.235 1.023-.243-.035.016z" fill="#0F89FF"/><path d="M136.006 39.977c2.015.351 4.355.533 6.731.224l.438 1.423.317 1.032.559 1.912 6.357-1.539-1.701-3.486-.528-1.085c.387-.214.768-.45 1.142-.71 1.484-1.03 2.855-2.426 4.026-4.284 8.672-13.788-2.347-23.653-2.35-23.653 0 0 7.108 13.086-1.98 23.075-8.515 9.358-17.948 5.795-18.942 5.383-.058-.022-.087-.038-.087-.038s.093.041.269.115c.732.3 2.919 1.133 5.749 1.631z" fill="#0060D3"/><path d="M147.271 47.4l1.045 4.01-31.877 6.28 2.411-5.581 28.421-4.71z" fill="#31A2FF"/><path d="M150.137 46.749l-2.865.65 1.045 4.01-31.877 6.277-.649 1.504a.963.963 0 01-.249.45.98.98 0 01-.486.236l-.003.004 37.91-5.555-2.826-7.576z" fill="#0F89FF"/><path d="M130.372 39.776l-3.15 2.133-15.847 10.727a11.65 11.65 0 011.158.932 12.935 12.935 0 011.522 1.593c.143.179.284.354.412.53.502.69.873 1.363 1.103 1.963.023.055.048.112.067.166.132.377.195.722.195 1.016 0 .127-.016.249-.041.357l3.744-8.667 3.927-.955 8.765-5.747 1.186-.779.457-1.848a19.52 19.52 0 01-3.498-1.42z" fill="#83CDFF"/><path d="M115.665 59.487a1.25 1.25 0 00.167-.651c.003-.297-.064-.639-.195-1.016-.221-.641-.621-1.376-1.171-2.129-.355-.485-.77-.98-1.237-1.462a13.355 13.355 0 00-1.851-1.593c-1.036-.725-2.012-1.14-2.715-1.143-.326-.003-.598.083-.787.265-.019.016-.035.038-.051.054-.745.865.291 3.23 2.363 5.364 2.034 2.09 4.326 3.192 5.25 2.554a.869.869 0 00.109-.087.965.965 0 00.118-.156z" fill="#fff"/><path d="M148.18 38.454l2.228 4.569 1.711-.415-2.801-4.866c-.371.262-.755.498-1.138.712z" fill="#0F89FF"/><path d="M153.65 35.386c-.355.425-.246.332-.643.728l16.017 8.03c.199.044.368.124.505.252.928.868-.038 3.406-2.155 5.67-1.263 1.35-2.65 2.298-3.76 2.66l.003.002-.019.003-.083.026-.007-.013-.076-.115-1.609-2.4-3.645-5.447-8.042 1.967 2.827 7.582-37.911 5.555.003-.003c-1.077.214-3.073-.859-4.87-2.708-2.072-2.132-3.105-4.498-2.363-5.363.016-.02.032-.038.051-.054.189-.185.461-.268.787-.265l15.364-10.807-19.674-7.54V66.085l69.058-8.023V23.175L153.65 35.386zM115.256 59.822z" fill="#0060D3"/></g><defs><clipPath id="clip0"><path fill="#fff" d="M0 0h173.409v70H0z"/></clipPath></defs></svg>
